!!!OTL: DER REINSTE TON
!!!ARE: Europa, Mitteleuropa, Deutschland, Rheinland, Mosel
!!!SCT: B0657
!!!YEM: Copyright 1995, estate of Helmut Schaffrath.
**kern
*ICvox
*Ivox
*M4/4
*k[]
*C:
{8c
8e
8f
=1
4.g
8e
8d
8c
8B
8c
=2
2d
8r}
{8d
8e
8f
=3
4.b
8a
8g
8f
8.d
16d
=4
2e
8r}
{8d
8d
8d
=5
4.b
8d
8e
8d
8.cc
16b
=6
2a
8r}
{8cc
8dd
8cc
=7
4.b
8g
8.b
16a
8cc
8f#
=8
2g
8r}
{8g
8a
8b
=9
4.cc
8b
8a
8g
8f
8e
=10
2d
8r}
{8f
8e
8d
=11
4.g
8g
8a
8a
8g
8d
=12
2e
8r}
{8g
8a
8b
=13
4.cc
8b
8dd
8cc
8g
8e
=14
4d
4a
8r}
{8cc
8b
8a
=15
8a
8g
8c
8d
4e
4d
=16
2c
8r}
==
!!!AGN: Moral - Lied, religioes
!!!ONB: ESAC (Essen Associative Code) Database: BOEHME
!!!AMT: simple quadruple
!!!AIN: vox
!!!EED: Helmut Schaffrath
!!!EEV: 1.0
*-
